X: 35699
T: Saint Anne's
R: reel
M: 4/4
K: Dmajor
|:fedf edcB|A2FA- ADFA|B2GB- BEGB|A2FA- ADFA|
fedf edcB|A2FA- ADFA|Beed cABc|d2 dc d2-de:|
|:f2-fg fedc|Bggf g2-gf|edcB Acea|baa^g a2-ag|
f2-fg fedc|Bggf g2-gf|edcB Aceg|fddc d2-de:|

